src/components/common/icons/lips.svg

<svg height="29" viewBox="0 0 55 29" width="55" xmlns="http://www.w3.org/2000/svg"><path d="m27.4999598 24.9966277c-7.9983512 0-14.8508506-3.0577505-20.47944507-8.5739325 2.87114727-.0951926 4.82810757-.7409412 6.46480877-1.2860255 1.2847381-.4274413 2.2996698-.7647595 3.5102976-.7647595 2.197718 0 3.3250623.6389894 4.6309632 1.3799307 1.4422122.8177068 3.0749705 1.7452513 5.8707201 1.7452513 2.827534 0 4.4616603-.9261765 5.903792-1.7531371 1.2914168-.7369984 2.406852-1.3720449 4.5966037-1.3720449 1.2133637 0 2.2307899.3386861 3.5181834.7687024 1.6354137.5437968 3.5884311 1.1907525 6.4516926 1.2940722-5.6352732 5.5068478-12.4772314 8.5619429-20.4676163 8.5619429m-15.0030139-18.03565864c1.9582478-1.95687987 3.7510552-3.21651215 6.880341-3.21651215 3.7377782 0 4.3663068 1.87488387 8.1240408 1.87488387 3.7576535 0 4.3874697-1.85243354 8.1253283-1.87488387 3.1252624-.01456455 4.9167823 1.25826434 6.880341 3.21651215 1.8946788 1.89604672 1.8761713 1.85243354 6.003008 5.73585714-2.5417149-.0317845-4.1943486-.5808921-5.7992653-1.1154352-1.4171064-.472342-2.8831368-.9619039-4.7050734-.9619039-3.1834401 0-4.9974104 1.0347267-6.4542676 1.8656301-1.2357335.7051334-2.2122825 1.2609198-4.0461281 1.2609198-1.8047165 0-2.7786101-.5544185-4.018367-1.2569769-1.4673179-.8322714-3.2919098-1.869573-6.4833162-1.869573-1.8193616 0-3.2800812.4869065-4.6945322.9578806-1.6036292.5293127-3.25489498 1.0810757-5.79660986 1.1061815 4.10832926-3.8701466 4.09110926-3.82782089 5.98450056-5.72258014m32.6628911-2.64624168c-2.3815854-2.37506748-5.1602759-4.31472738-8.9231598-4.31472738-4.9883176 0-5.9885239 1.87488387-8.7327745 1.87488387-2.7441702 0-3.7523427-1.87488387-8.1266158-1.87488387-4.3743535 0-7.156826 1.9330616-9.54114721 4.31472738-2.52191998 2.51395373-9.83613969 10.05581492-9.83613969 10.05581492 4.99741042 6.8802605 13.7473245 14.3825319 27.5026152 14.3825319s22.4906402-7.5022714 27.4973848-14.3825319c0 0-7.3168751-7.54186119-9.840163-10.05581492" fill-rule="evenodd"/></svg>

<?xml version="1.0" encoding="UTF-8"?>
<svg width="55px" height="29px" viewBox="0 0 55 29" version="1.1" xmlns="http://www.w3.org/2000/svg" xmlns:xlink="http://www.w3.org/1999/xlink">
    <!-- Generator: Sketch 52.5 (67469) - http://www.bohemiancoding.com/sketch -->
    <title>Icons/.lips</title>
    <desc>Created with Sketch.</desc>
    <g id="Vapaaehtoisalusta-Layouts" stroke="none" stroke-width="1" fill="none" fill-rule="evenodd">
        <g id="HKI-Ikonit" transform="translate(-929.000000, -918.000000)" fill="#000000">
            <g id="Icons/.lips" transform="translate(929.000000, 918.000000)">
                <path d="M27.4999598,24.9966277 C19.5016086,24.9966277 12.6491092,21.9388772 7.02051473,16.4226952 C9.891662,16.3275026 11.8486223,15.681754 13.4853235,15.1366697 C14.7700616,14.7092284 15.7849933,14.3719102 16.9956211,14.3719102 C19.1933391,14.3719102 20.3206834,15.0108996 21.6265843,15.7518409 C23.0687965,16.5695477 24.7015548,17.4970922 27.4973044,17.4970922 C30.3248384,17.4970922 31.9589647,16.5709157 33.4010964,15.7439551 C34.6925132,15.0069567 35.8079484,14.3719102 37.9977001,14.3719102 C39.2110638,14.3719102 40.22849,14.7105963 41.5158835,15.1406126 C43.1512972,15.6844094 45.1043146,16.3313651 47.9675761,16.4346848 C42.3323029,21.9415326 35.4903447,24.9966277 27.4999598,24.9966277 M12.4969459,6.96096906 C14.4551937,5.00408919 16.2480011,3.74445691 19.3772869,3.74445691 C23.1150651,3.74445691 23.7435937,5.61934078 27.5013277,5.61934078 C31.2589812,5.61934078 31.8887974,3.76690724 35.626656,3.74445691 C38.7519184,3.72989236 40.5434383,5.00272125 42.506997,6.96096906 C44.4016758,8.85701578 44.3831683,8.8134026 48.510005,12.6968262 C45.9682901,12.6650417 44.3156564,12.1159341 42.7107397,11.581391 C41.2936333,11.109049 39.8276029,10.6194871 38.0056663,10.6194871 C34.8222262,10.6194871 33.0082559,11.6542138 31.5513987,12.4851172 C30.3156652,13.1902506 29.3391162,13.746037 27.5052706,13.746037 C25.7005541,13.746037 24.7266605,13.1916185 23.4869036,12.4890601 C22.0195857,11.6567887 20.1949938,10.6194871 17.0035874,10.6194871 C15.1842258,10.6194871 13.7235062,11.1063936 12.3090552,11.5773677 C10.705426,12.1066804 9.05416022,12.6584434 6.51244534,12.6835492 C10.6207746,8.8134026 10.6035546,8.85572831 12.4969459,6.96096906 M45.159837,4.31472738 C42.7782516,1.9396599 39.9995611,0 36.2366772,0 C31.2483596,0 30.2481533,1.87488387 27.5039027,1.87488387 C24.7597325,1.87488387 23.75156,0 19.3772869,0 C15.0029334,0 12.2204609,1.9330616 9.83613969,4.31472738 C7.31421971,6.82868111 0,14.3705423 0,14.3705423 C4.99741042,21.2508028 13.7473245,28.7530742 27.5026152,28.7530742 C41.2579059,28.7530742 49.9932554,21.2508028 55,14.3705423 C55,14.3705423 47.6831249,6.82868111 45.159837,4.31472738" id="Fill-1"></path>
            </g>
        </g>
    </g>
</svg>
